!!!OTL: DAVIDKEN SIEN VADER
!!!ARE: Europa, Mitteleuropa, Deutschland, Mark
!!!SCT: E1758
!!!YEM: Copyright 1995, estate of Helmut Schaffrath.
**kern
*ICvox
*Ivox
*M3/8
*k[]
*C:
{8G
=1
8c
8B
8A
=2
8G
8F
8E
=3
8F
8D
8G
=4
4C}
{8c
=5
4B
8c
=6
4d
8d
=7
8G
8A
8B
=8
4c}
{8c
=9
4A
8A
=10
8A
8B
8c
=11
4G
8G
=12
4G}
{8c
=13
4A
8A
=14
8A
8B
8c
=15
4G
8G
=16
4G}
{8G
=17
8c
8B
8A
=18
8c
8B
8A
=19
8c
8B
8A
=20
4G}
{8G
=21
8d
8e
8f
=22
8B
8c
8d
=23
4c
8c
=24
4c}
==
!!!AGN: Scherz - Lied, biblischer Stoff
!!!ONB: ESAC (Essen Associative Code) Database: ERK3
!!!AMT: simple triple
!!!AIN: vox
!!!EED: Helmut Schaffrath
!!!EEV: 1.0
*-
